src/img/icon-notice.svg

<svg width="30" height="34" viewBox="0 0 30 34" fill="none" xmlns="http://www.w3.org/2000/svg">
<circle cx="15" cy="15" r="15" fill="#6E5590"/>
<path d="M12.7456 20.228L11.0376 18.996L12.6896 16.084L9.66556 14.712L10.3096 12.696L13.5576 13.368L13.9216 10.064H16.0776L16.4416 13.396L19.6616 12.696L20.3336 14.712L17.3096 16.084L18.9616 18.996L17.2536 20.228L15.0136 17.736L12.7456 20.228Z" fill="white"/>
</svg>

<svg fill="none" height="34" viewBox="0 0 30 34" width="30" xmlns="http://www.w3.org/2000/svg"><circle cx="15" cy="15" fill="#6e5590" r="15"/><path d="m12.7456 20.228-1.708-1.232 1.652-2.912-3.02404-1.372.64404-2.016 3.248.672.364-3.304h2.156l.364 3.332 3.22-.7.672 2.016-3.024 1.372 1.652 2.912-1.708 1.232-2.24-2.492z" fill="#fff"/></svg>
